X:679
T:Angus Campbell (Glasgow)
M:4/4
L:1/8
C:J. Scott Skinner
R:Reel
O:Scotland
K:A
E2|\
A/2A/2A cA EAce | a2ga faec | \
d/2d/2d Bd c/2c/2c Ac | BFBA GEFG | \
A/2A/2A cA EAce | a2ga faec | \
defd ceaf | ecdB Aefg ||\
{g}a2ea caAa | c/2B/2A ce {g}aAce | \
{a}b2fb dbBb | d/2c/2B df bBdb |\
{g}a2ea  caAa | c/2B/2A ce aecA | \
defd ceaf | ecdB AEFG ||**
